X:793
T:Reel 793
M:4/4
K:Ador
L:1/8
GAAG EDB,C|DB,GB, AB,GB,|A,AAG EDB,D|GFEF GEDB,|A,AAG EDB,D|D2GB, AB,GB,|A,AAG E^FGA|BGAF GEDB,|EAA^G ABcA|GABc dBAG|EAA^G ABcA|BAGA BAA2|EAA^G ABcA|GABc d2cd| (3edc dB cABA|GEDB, B,A,A,2|EAAd cdBA|GEDC B,CD2|EAAB cBcA|BedB A2AB|EAAB cBAG|BGDG B,GGB|cedB cABA|GEDB, B,A,A,2|
